X:471
T:Walkin' In Jerusalem
C:Ricky Skaggs solo
N:From "Boone Creek" Rounder 0081
R:bluegrass
L:1/8
Q:1/4=205
M:4/4
K:C
"Intro"z6 AA | c^c AA d2 dA | ea2a a2 a^c' | aa ed ^cA ^GA | E2 [a^c][ac] [ac][ac] [a2c2] | 
A,^C E^F A2 AB | cB/c/ BA e2 ee | ea ed ^cA =c^c | A2 [eA]G (3E^D=D C^C | A,2 [eA][eA] A,[a^c] [ac][ac] | 
A,2 [a2^c2E2] A,2 [a2c2E2] | "First Break"A,^C E^F A2 AB | cB/c/ BA e2 ee | ea ed ^cA ^G/A/A | 
E2 [a^c][ac] [ac][ac] [a2c2] | ea2a aa2a | ^c'2 a2 a2 ^c2 | ^g2 b2 ed c^c | A2 AG E/^D/=D C^C | 
E2 [a^c][ac] [ac][ac] [a2c2] | A,^C E^F AB c^c | e^d =dc ^ce ae | ab c'^c' d'=c' ^c'a | 
^fe a2 ^cA dA | c^c a=c ^ca ca | ^c'2 ag ^de g2 | dA cd2A c^c | A2 G/A/G (3E^D=D C^C | 
"Second Break"A,3e e^f a2 | (3[^c'a][c'a][c'a] (3[c'a][c'a][c'a] (3[c'a][c'a][c'a] (3[c'a][c'a][c'a] | 
(3[ae][ae][ae] (3[ae][ae][ae] (3[ae][ae][ae] (3ee[^fd] | (3[ge][ge][ge] (3[ge][ge][ge] (3[ge][ge][ge] (3[e^c][ec][e=c] | 
(3[eA][eA][eA] (3[eA][eA][eA] [e2A2] [e2A2] | E^C E^F AB c^c | e^d =dc ^ca2a | 
ge {d}eg {d}ec dc | A2 (3^GA=G (3E^D=D C^C | A,2 [a3^c3E3A,3][acEA,] [a2c2E2A,2] | 
A,^C E^F AB c^c | dA ^cA (3=cBA GA | EG3 ^cA Ad | zA ^cA (3=cBA E2 | z2 (3cBA ^F4 | 
(3cBA G4 c^c | e^d =de (3cBA ^FE | A2 GA ^FE CB, | A,2 B,C ^CE ^FE | A{G}A2A ^cA ec | 
a8 | 


